svg/fluentui-system-icons/ic_fluent_guitar_16_regular.svg

<svg width="16" height="16" viewBox="0 0 16 16" fill="none" xmlns="http://www.w3.org/2000/svg">
<path d="M7.77973 9.28078C7.48686 9.57367 7.01204 9.57367 6.71918 9.28078C6.42631 8.98789 6.42631 8.51301 6.71918 8.22012C7.01204 7.92723 7.48686 7.92723 7.77973 8.22012C8.07259 8.51301 8.07259 8.98789 7.77973 9.28078ZM10.4809 7.46992L13.513 4.43751C13.8957 4.05485 13.8957 3.43442 13.513 3.05176L12.9476 2.48622C12.5649 2.10355 11.9446 2.10355 11.5619 2.48622L8.52985 5.51863C7.71826 5.00215 6.59293 5.27768 6.13917 6.1853L5.89498 6.67375C5.83515 6.79341 5.70265 6.85822 5.57149 6.83198L5.52906 6.82349C4.46378 6.61041 3.37081 7.02804 2.71898 7.89723C1.64563 9.32851 1.78795 11.3313 3.05291 12.5964L3.40389 12.9474C4.66885 14.2125 6.67145 14.3549 8.10258 13.2814C8.97168 12.6295 9.38927 11.5364 9.17621 10.471L9.16772 10.4286C9.14149 10.2974 9.20629 10.1649 9.32594 10.1051L9.81434 9.86084C10.7219 9.40703 10.9974 8.28159 10.4809 7.46992ZM10.8769 4.58551L11.414 5.12259L9.4487 7.08805C9.25346 7.28331 9.25346 7.59989 9.4487 7.79516L9.54207 7.88853C9.86687 8.21337 9.77801 8.76097 9.36717 8.96642L8.87877 9.21064C8.35583 9.47214 8.07258 10.0513 8.18725 10.6247L8.19574 10.6672C8.33327 11.3549 8.0637 12.0606 7.50265 12.4814C6.46959 13.2563 5.02403 13.1535 4.11093 12.2403L3.75994 11.8893C2.84684 10.9761 2.74411 9.53039 3.5189 8.49723C3.93969 7.93612 4.64526 7.66652 5.33296 7.80407L5.37539 7.81256C5.94871 7.92724 6.52784 7.64396 6.78931 7.12096L7.03351 6.63251C7.23893 6.22163 7.78647 6.13276 8.11127 6.45759L8.20465 6.55097C8.39989 6.74623 8.71644 6.74623 8.91168 6.55097L10.8769 4.58551ZM11.584 3.8784L12.2547 3.20755L12.7918 3.74464L12.121 4.41548L11.584 3.8784Z" fill="#212121"/>
</svg>

<svg xmlns="http://www.w3.org/2000/svg" width="16" height="16"><path d="M7.78 9.28a.75.75 0 1 1-1.06-1.06.75.75 0 0 1 1.06 1.06Zm2.7-1.81 3.033-3.032a.98.98 0 0 0 0-1.386l-.565-.566a.98.98 0 0 0-1.386 0L8.53 5.52a1.674 1.674 0 0 0-2.39.666l-.245.489a.297.297 0 0 1-.324.158l-.042-.009a2.82 2.82 0 0 0-2.81 1.074 3.595 3.595 0 0 0 .334 4.7l.35.35a3.594 3.594 0 0 0 4.7.334 2.822 2.822 0 0 0 1.073-2.81l-.008-.042a.297.297 0 0 1 .158-.324l.488-.244a1.674 1.674 0 0 0 .667-2.391Zm.397-2.884.537.537-1.965 1.965a.5.5 0 0 0 0 .707l.093.094a.673.673 0 0 1-.175 1.077l-.488.245c-.523.261-.806.84-.692 1.414l.009.042a1.821 1.821 0 0 1-.693 1.814 2.595 2.595 0 0 1-3.392-.24l-.351-.352a2.595 2.595 0 0 1-.241-3.392 1.821 1.821 0 0 1 1.814-.693l.042.009A1.296 1.296 0 0 0 6.79 7.12l.245-.488a.673.673 0 0 1 1.077-.175l.094.093a.5.5 0 0 0 .707 0l1.965-1.965Zm.707-.708.67-.67.538.537-.671.67-.537-.537Z"/></svg>
